packages/kaspersky-hexa-ui-icons/src/iconsSVGs/48/Tag.svg

<svg width="48" height="48" viewBox="0 0 48 48" fill="none" xmlns="http://www.w3.org/2000/svg">
<path fill-rule="evenodd" clip-rule="evenodd" d="M42.4141 0H27.5742L0.598633 28.0137L20 47.4141L48 19.4141V5.58594L42.4141 0ZM46 18.5859L20 44.5859L3.40137 27.9863L28.4258 2H41.5859L46 6.41406V18.5859ZM7.58594 28.167L19.833 40.4141L36.414 23.8331L24.167 11.5859L7.58594 28.167ZM19.833 37.586L10.414 28.167L24.167 14.4141L33.586 23.8331L19.833 37.586ZM16.707 25.293L22.707 31.293L21.293 32.707L15.293 26.707L16.707 25.293ZM19.707 22.293L25.707 28.293L24.293 29.707L18.293 23.707L19.707 22.293ZM22.793 22.207L24.207 20.793L27.207 23.793L25.793 25.207L22.793 22.207ZM34.1719 8.17188C33.0277 9.3158 32.6853 11.0363 33.3044 12.5311C33.9235 14.026 35.3821 15.0006 37 15.0006C38.6179 15.0006 40.0765 14.026 40.6956 12.5311C41.3147 11.0363 40.9723 9.3158 39.8281 8.17188C38.2457 6.66016 35.7543 6.66016 34.1719 8.17188ZM38.4141 12.4141C37.6229 13.1699 36.3771 13.1699 35.5859 12.4141C35.0139 11.8421 34.8427 10.9818 35.1522 10.2344C35.4617 9.48702 36.191 8.99969 37 8.99969C37.809 8.99969 38.5383 9.48702 38.8478 10.2344C39.1573 10.9818 38.9861 11.8421 38.4141 12.4141Z"  fill="currentColor"/>
</svg>

<svg xmlns="http://www.w3.org/2000/svg" width="48" height="48" fill="none" viewBox="0 0 48 48"><path fill="currentColor" fill-rule="evenodd" d="M42.4141 0H27.5742L.5986 28.0137 20 47.4141l28-28V5.5859zM46 18.5859l-26 26L3.4014 27.9863 28.4258 2h13.1601L46 6.414zM7.586 28.167l12.247 12.2471 16.581-16.581-12.247-12.2472zm12.247 9.419-9.419-9.419 13.753-13.7529 9.419 9.419zm-3.126-12.293 6 6-1.414 1.414-6-6zm3-3 6 6-1.414 1.414-6-6zm3.086-.086 1.414-1.414 3 3-1.414 1.414zM34.1719 8.1719a4 4 0 1 0 6.5237 4.3592 4 4 0 0 0-.8675-4.3592c-1.5824-1.5117-4.0738-1.5117-5.6562 0m4.2422 4.2422c-.7912.7558-2.037.7558-2.8282 0a2 2 0 1 1 2.8282 0" clip-rule="evenodd"/></svg>
